X: 15
T: No_114_Song_of_the_Little_Slave_Man.krn
N: Derived from No_114_Song_of_the_Little_Slave_Man.krn
%%abc-version 2.0
%%abcx-abcm2ps-target-version 5.9.1 (29 Sep 2008)
%%abc-creator hum2abc beta
%%abcx-conversion-date 2019/03/15 08:36:13
%%humdrum-veritas 2114572569
%%humdrum-veritas-data 3103591832
%%linebreak <none>
%%barnumbers 0
L: 1/8
M: 2/4
K: Ab clef=bass
[K:clef=bass][M:2/4]F,2F,F, | 
E,2E,E, | 
C,B,,- B,, z | 
F,F, F,F, | 
F,F, F, z | 
A,2A,G, | 
F,2F,F, | 
D,C,- C, z | 
A,2A,G, | 
F,2F,F, | 
D,C,- C, z | 
F,F, F,F, | 
F,F, F, z | 
A,2A,G, | 
F,2F,F, | 
D,C,- C, z | 
F,F, F,F, | 
F,F, F, z | 
A,2A,G, | 
F,2F,F, | 
D,C,- C, z | 
A,2A,G, | 
F,2F,F, | 
D,C,- C, z |]  



